assets/1. 1-F/Bell pepper/Color/Bell.Pepper-color.svg

<svg width="100%" height="100%" viewBox="0 0 32 32" fill="none" xmlns="http://www.w3.org/2000/svg">
<path d="M17.5943 11.47C17.5843 11.47 17.5843 11.47 17.5843 11.47L15.4643 7.72C14.8343 6.52 14.8643 5.12 15.5443 3.95C16.2343 2.73 17.5643 2 18.9643 2H19.0043C19.5543 2 20.0043 2.45 20.0043 3C20.0043 3.55 19.5543 4 19.0043 4H18.9543C18.2543 4 17.6043 4.36 17.2543 4.96C16.9343 5.52 16.9243 6.19 17.2143 6.77L19.3143 10.48C19.3143 10.49 19.3143 10.49 19.3143 10.49L17.5943 11.47Z" fill="url(#paint0_radial_18_32975)"/>
<path d="M17.5943 11.47C17.5843 11.47 17.5843 11.47 17.5843 11.47L15.4643 7.72C14.8343 6.52 14.8643 5.12 15.5443 3.95C16.2343 2.73 17.5643 2 18.9643 2H19.0043C19.5543 2 20.0043 2.45 20.0043 3C20.0043 3.55 19.5543 4 19.0043 4H18.9543C18.2543 4 17.6043 4.36 17.2543 4.96C16.9343 5.52 16.9243 6.19 17.2143 6.77L19.3143 10.48C19.3143 10.49 19.3143 10.49 19.3143 10.49L17.5943 11.47Z" fill="url(#paint1_radial_18_32975)"/>
<path d="M16.0042 13.34C18.3073 13.34 20.1742 11.473 20.1742 9.17C20.1742 6.86697 18.3073 5 16.0042 5C13.7012 5 11.8342 6.86697 11.8342 9.17C11.8342 11.473 13.7012 13.34 16.0042 13.34Z" fill="#A8C245"/>
<path d="M16.0042 13.34C18.3073 13.34 20.1742 11.473 20.1742 9.17C20.1742 6.86697 18.3073 5 16.0042 5C13.7012 5 11.8342 6.86697 11.8342 9.17C11.8342 11.473 13.7012 13.34 16.0042 13.34Z" fill="url(#paint2_radial_18_32975)"/>
<path d="M8.49428 30C6.33428 30 4.52428 28.34 4.33428 26.19L3.01428 11.07C2.82428 8.88 4.55428 7 6.75428 7H9.53428C11.2643 7 12.6543 8.4 12.6543 10.12V25.82C12.6643 28.13 10.7943 30 8.49428 30Z" fill="url(#paint3_linear_18_32975)"/>
<path d="M8.49428 30C6.33428 30 4.52428 28.34 4.33428 26.19L3.01428 11.07C2.82428 8.88 4.55428 7 6.75428 7H9.53428C11.2643 7 12.6543 8.4 12.6543 10.12V25.82C12.6643 28.13 10.7943 30 8.49428 30Z" fill="url(#paint4_linear_18_32975)"/>
<path d="M8.49428 30C6.33428 30 4.52428 28.34 4.33428 26.19L3.01428 11.07C2.82428 8.88 4.55428 7 6.75428 7H9.53428C11.2643 7 12.6543 8.4 12.6543 10.12V25.82C12.6643 28.13 10.7943 30 8.49428 30Z" fill="url(#paint5_radial_18_32975)"/>
<path d="M8.49428 30C6.33428 30 4.52428 28.34 4.33428 26.19L3.01428 11.07C2.82428 8.88 4.55428 7 6.75428 7H9.53428C11.2643 7 12.6543 8.4 12.6543 10.12V25.82C12.6643 28.13 10.7943 30 8.49428 30Z" fill="url(#paint6_radial_18_32975)"/>
<path d="M23.5143 30C25.6743 30 27.4843 28.34 27.6743 26.19L28.9843 11.08C29.1843 8.88 27.4543 7 25.2543 7H22.4743C20.7443 7 19.3543 8.4 19.3543 10.12V25.82C19.3443 28.13 21.2143 30 23.5143 30Z" fill="url(#paint7_linear_18_32975)"/>
<path d="M23.5143 30C25.6743 30 27.4843 28.34 27.6743 26.19L28.9843 11.08C29.1843 8.88 27.4543 7 25.2543 7H22.4743C20.7443 7 19.3543 8.4 19.3543 10.12V25.82C19.3443 28.13 21.2143 30 23.5143 30Z" fill="url(#paint8_linear_18_32975)"/>
<path d="M23.5143 30C25.6743 30 27.4843 28.34 27.6743 26.19L28.9843 11.08C29.1843 8.88 27.4543 7 25.2543 7H22.4743C20.7443 7 19.3543 8.4 19.3543 10.12V25.82C19.3443 28.13 21.2143 30 23.5143 30Z" fill="url(#paint9_linear_18_32975)"/>
<path d="M23.5143 30C25.6743 30 27.4843 28.34 27.6743 26.19L28.9843 11.08C29.1843 8.88 27.4543 7 25.2543 7H22.4743C20.7443 7 19.3543 8.4 19.3543 10.12V25.82C19.3443 28.13 21.2143 30 23.5143 30Z" fill="url(#paint10_radial_18_32975)"/>
<path d="M23.5143 30C25.6743 30 27.4843 28.34 27.6743 26.19L28.9843 11.08C29.1843 8.88 27.4543 7 25.2543 7H22.4743C20.7443 7 19.3543 8.4 19.3543 10.12V25.82C19.3443 28.13 21.2143 30 23.5143 30Z" fill="url(#paint11_radial_18_32975)"/>
<path d="M16.0043 30C12.6943 30 10.0043 27.31 10.0043 24V10.75C10.0043 8.68 11.6843 7 13.7543 7H18.2543C20.3243 7 22.0043 8.68 22.0043 10.75V24C22.0043 27.31 19.3143 30 16.0043 30Z" fill="url(#paint12_linear_18_32975)"/>
<g filter="url(#filter0_f_18_32975)">
<path d="M23.9375 18.3462C23.9376 10.6644 22.1596 8.49615 20.9001 8.0625C20.3075 14.0717 20.0112 24.7092 20.9002 25.75C21.7892 26.7908 23.0732 24.1473 23.9375 24.3125C23.8634 23.0941 23.9374 24.0971 23.9375 18.3462Z" fill="url(#paint13_linear_18_32975)"/>
</g>
<g filter="url(#filter1_f_18_32975)">
<path d="M8.87499 10.125C9.48572 8.97989 10.6042 8.39583 11.1875 8.125L12.125 28.0625C11.0833 27.6667 9.02504 27.6787 8.43749 26C8 24.75 8.37499 11.0625 8.87499 10.125Z" fill="url(#paint14_linear_18_32975)"/>
</g>
<path d="M16.0043 30C12.6943 30 10.0043 27.31 10.0043 24V10.75C10.0043 8.68 11.6843 7 13.7543 7H18.2543C20.3243 7 22.0043 8.68 22.0043 10.75V24C22.0043 27.31 19.3143 30 16.0043 30Z" fill="url(#paint15_linear_18_32975)"/>
<path d="M16.0043 30C12.6943 30 10.0043 27.31 10.0043 24V10.75C10.0043 8.68 11.6843 7 13.7543 7H18.2543C20.3243 7 22.0043 8.68 22.0043 10.75V24C22.0043 27.31 19.3143 30 16.0043 30Z" fill="url(#paint16_radial_18_32975)"/>
<g filter="url(#filter2_f_18_32975)">
<path d="M13.7574 7.68227C12.9398 7.73227 12.4326 8.53644 12.2812 8.93227C13.6817 10.2239 16.5507 12.7823 16.8232 12.6823C17.0958 12.5823 18.8671 9.80725 19.7188 8.43225L19.0942 7.68227C17.6559 7.66144 14.575 7.63227 13.7574 7.68227Z" fill="url(#paint17_radial_18_32975)"/>
</g>
<g filter="url(#filter3_f_18_32975)">
<path d="M18.484 8.86841C18.9007 9.20174 19.7715 10.0934 19.9215 10.9934C20.0715 11.8934 19.984 21.3684 19.9215 25.9934" stroke="url(#paint18_linear_18_32975)" stroke-width="2"/>
</g>
<g filter="url(#filter4_f_18_32975)">
<path d="M24.4154 11.6031C25.0737 9.92367 26.6847 7.50985 27.3223 8.00868C29.8547 9.99038 26.4841 10.9568 24.4154 11.6031Z" fill="#AFD962"/>
</g>
<g filter="url(#filter5_f_18_32975)">
<path d="M18.3602 12.6851C18.5037 10.7803 19.3906 8.55423 20.0979 8.94803C22.9072 10.5125 20.3736 11.9099 18.3602 12.6851Z" fill="#A3D061"/>
</g>
<defs>
<filter id="filter0_f_18_32975" x="18.3391" y="6.0625" width="7.59839" height="21.9309" filterUnits="userSpaceOnUse" color-interpolation-filters="sRGB">
<feFlood flood-opacity="0" result="BackgroundImageFix"/>
<feBlend mode="normal" in="SourceGraphic" in2="BackgroundImageFix" result="shape"/>
<feGaussianBlur stdDeviation="1" result="effect1_foregroundBlur_18_32975"/>
</filter>
<filter id="filter1_f_18_32975" x="7.24438" y="7.125" width="5.88062" height="21.9375" filterUnits="userSpaceOnUse" color-interpolation-filters="sRGB">
<feFlood flood-opacity="0" result="BackgroundImageFix"/>
<feBlend mode="normal" in="SourceGraphic" in2="BackgroundImageFix" result="shape"/>
<feGaussianBlur stdDeviation="0.5" result="effect1_foregroundBlur_18_32975"/>
</filter>
<filter id="filter2_f_18_32975" x="10.2812" y="5.65466" width="11.4375" height="9.0304" filterUnits="userSpaceOnUse" color-interpolation-filters="sRGB">
<feFlood flood-opacity="0" result="BackgroundImageFix"/>
<feBlend mode="normal" in="SourceGraphic" in2="BackgroundImageFix" result="shape"/>
<feGaussianBlur stdDeviation="1" result="effect1_foregroundBlur_18_32975"/>
</filter>
<filter id="filter3_f_18_32975" x="15.8593" y="6.08752" width="7.14502" height="21.9194" filterUnits="userSpaceOnUse" color-interpolation-filters="sRGB">
<feFlood flood-opacity="0" result="BackgroundImageFix"/>
<feBlend mode="normal" in="SourceGraphic" in2="BackgroundImageFix" result="shape"/>
<feGaussianBlur stdDeviation="1" result="effect1_foregroundBlur_18_32975"/>
</filter>
<filter id="filter4_f_18_32975" x="23.4154" y="6.94214" width="5.81213" height="5.66089" filterUnits="userSpaceOnUse" color-interpolation-filters="sRGB">
<feFlood flood-opacity="0" result="BackgroundImageFix"/>
<feBlend mode="normal" in="SourceGraphic" in2="BackgroundImageFix" result="shape"/>
<feGaussianBlur stdDeviation="0.5" result="effect1_foregroundBlur_18_32975"/>
</filter>
<filter id="filter5_f_18_32975" x="16.8602" y="7.40234" width="5.98547" height="6.78284" filterUnits="userSpaceOnUse" color-interpolation-filters="sRGB">
<feFlood flood-opacity="0" result="BackgroundImageFix"/>
<feBlend mode="normal" in="SourceGraphic" in2="BackgroundImageFix" result="shape"/>
<feGaussianBlur stdDeviation="0.75" result="effect1_foregroundBlur_18_32975"/>
</filter>
<radialGradient id="paint0_radial_18_32975" cx="0" cy="0" r="1" gradientUnits="userSpaceOnUse" gradientTransform="translate(19 5.65625) rotate(-136.532) scale(4.13363 5.26925)">
<stop offset="0.359979" stop-color="#B9BE4F"/>
<stop offset="0.529751" stop-color="#F5EF41"/>
<stop offset="0.729537" stop-color="#EDEE43"/>
<stop offset="0.944828" stop-color="#B6C24B"/>
</radialGradient>
<radialGradient id="paint1_radial_18_32975" cx="0" cy="0" r="1" gradientUnits="userSpaceOnUse" gradientTransform="translate(19.5 2.84375) rotate(147.995) scale(1.17925 1.27502)">
<stop stop-color="#FFFF5E"/>
<stop offset="1" stop-color="#FFFF5C" stop-opacity="0"/>
</radialGradient>
<radialGradient id="paint2_radial_18_32975" cx="0" cy="0" r="1" gradientUnits="userSpaceOnUse" gradientTransform="translate(18.75 7.25) rotate(143.643) scale(5.58772)">
<stop stop-color="#F7FF4D"/>
<stop offset="0.576923" stop-color="#CEEC3A"/>
<stop offset="1" stop-color="#F5FF4B" stop-opacity="0"/>
</radialGradient>
<linearGradient id="paint3_linear_18_32975" x1="7.83428" y1="6.4295" x2="7.83428" y2="34.0165" gradientUnits="userSpaceOnUse">
<stop stop-color="#4E9100"/>
<stop offset="0.2425" stop-color="#4B9103"/>
<stop offset="0.4372" stop-color="#438F0D"/>
<stop offset="0.6153" stop-color="#368D1E"/>
<stop offset="0.7835" stop-color="#238A36"/>
<stop offset="0.9434" stop-color="#0A8654"/>
<stop offset="1" stop-color="#008461"/>
</linearGradient>
<linearGradient id="paint4_linear_18_32975" x1="3.4375" y1="18" x2="10.9375" y2="18" gradientUnits="userSpaceOnUse">
<stop stop-color="#55825F"/>
<stop offset="0.516667" stop-color="#3C7B4F"/>
<stop offset="1" stop-color="#507A57"/>
</linearGradient>
<radialGradient id="paint5_radial_18_32975" cx="0" cy="0" r="1" gradientUnits="userSpaceOnUse" gradientTransform="translate(-0.3125 11.125) rotate(65.4458) scale(21.5074 18.7295)">
<stop offset="0.690908" stop-color="#375E6F" stop-opacity="0"/>
<stop offset="1" stop-color="#365C6D"/>
</radialGradient>
<radialGradient id="paint6_radial_18_32975" cx="0" cy="0" r="1" gradientUnits="userSpaceOnUse" gradientTransform="translate(9.6875 7) rotate(115.523) scale(7.68775 7.22952)">
<stop stop-color="#7CAA51"/>
<stop offset="1" stop-color="#73A645" stop-opacity="0"/>
</radialGradient>
<linearGradient id="paint7_linear_18_32975" x1="24.1742" y1="4.4531" x2="24.1742" y2="32.0402" gradientUnits="userSpaceOnUse">
<stop stop-color="#4E9100"/>
<stop offset="0.2312" stop-color="#4C9103"/>
<stop offset="0.254" stop-color="#4B9104"/>
<stop offset="0.3959" stop-color="#479009"/>
<stop offset="0.5576" stop-color="#3C8E16"/>
<stop offset="0.7289" stop-color="#2A8B2D"/>
<stop offset="0.9059" stop-color="#10874D"/>
<stop offset="1" stop-color="#008461"/>
</linearGradient>
<linearGradient id="paint8_linear_18_32975" x1="17.0705" y1="18.5" x2="27.5468" y2="18.5" gradientUnits="userSpaceOnUse">
<stop stop-color="#008461"/>
<stop offset="1" stop-color="#008461" stop-opacity="0"/>
</linearGradient>
<linearGradient id="paint9_linear_18_32975" x1="20.875" y1="16.9375" x2="29" y2="16.9375" gradientUnits="userSpaceOnUse">
<stop stop-color="#769F37"/>
<stop offset="0.569228" stop-color="#7DB459"/>
<stop offset="1" stop-color="#7DB24E"/>
</linearGradient>
<radialGradient id="paint10_radial_18_32975" cx="0" cy="0" r="1" gradientUnits="userSpaceOnUse" gradientTransform="translate(30 9.0625) rotate(107.532) scale(28.8396 12.2959)">
<stop offset="0.55329" stop-color="#3B5E72" stop-opacity="0"/>
<stop offset="0.767017" stop-color="#36616C"/>
</radialGradient>
<radialGradient id="paint11_radial_18_32975" cx="0" cy="0" r="1" gradientUnits="userSpaceOnUse" gradientTransform="translate(26.5 10.5) rotate(61.6726) scale(9.08833 12.018)">
<stop stop-color="#ABD45C"/>
<stop offset="1" stop-color="#A7D05F" stop-opacity="0"/>
</radialGradient>
<linearGradient id="paint12_linear_18_32975" x1="16.0043" y1="5.4261" x2="16.0043" y2="33.0131" gradientUnits="userSpaceOnUse">
<stop stop-color="#4E9100"/>
<stop offset="0.2425" stop-color="#4B9103"/>
<stop offset="0.4372" stop-color="#438F0D"/>
<stop offset="0.6153" stop-color="#368D1E"/>
<stop offset="0.7835" stop-color="#238A36"/>
<stop offset="0.9434" stop-color="#0A8654"/>
<stop offset="1" stop-color="#008461"/>
</linearGradient>
<linearGradient id="paint13_linear_18_32975" x1="21.4188" y1="20.8862" x2="26.5" y2="20.8862" gradientUnits="userSpaceOnUse">
<stop stop-color="#36812E"/>
<stop offset="0.274286" stop-color="#68A166"/>
<stop offset="1" stop-color="#71A868"/>
</linearGradient>
<linearGradient id="paint14_linear_18_32975" x1="10.1847" y1="16.5" x2="7.875" y2="16.5" gradientUnits="userSpaceOnUse">
<stop stop-color="#25533D"/>
<stop offset="0.512922" stop-color="#3E6956"/>
<stop offset="1" stop-color="#447159" stop-opacity="0"/>
</linearGradient>
<linearGradient id="paint15_linear_18_32975" x1="10.0043" y1="16.375" x2="22.0043" y2="16.375" gradientUnits="userSpaceOnUse">
<stop stop-color="#538058"/>
<stop offset="0.207977" stop-color="#4A844D"/>
<stop offset="0.609019" stop-color="#70A366"/>
<stop offset="1" stop-color="#83B84C"/>
</linearGradient>
<radialGradient id="paint16_radial_18_32975" cx="0" cy="0" r="1" gradientUnits="userSpaceOnUse" gradientTransform="translate(16.0043 9.5) rotate(90) scale(23.9375 25.4732)">
<stop offset="0.638021" stop-color="#3D6176" stop-opacity="0"/>
<stop offset="0.88052" stop-color="#415F7A"/>
</radialGradient>
<radialGradient id="paint17_radial_18_32975" cx="0" cy="0" r="1" gradientUnits="userSpaceOnUse" gradientTransform="translate(13.8125 11.625) rotate(-26.0296) scale(5.98174 7.17687)">
<stop stop-color="#629840"/>
<stop offset="0.386681" stop-color="#679D43"/>
<stop offset="1" stop-color="#87B73D"/>
</radialGradient>
<linearGradient id="paint18_linear_18_32975" x1="19.2442" y1="8.86841" x2="19.2442" y2="25.9934" gradientUnits="userSpaceOnUse">
<stop offset="0.427392" stop-color="#95C360"/>
<stop offset="1" stop-color="#8CBD5D" stop-opacity="0"/>
</linearGradient>
</defs>
</svg>

<svg width="100%" height="100%" viewBox="0 0 32 32" xmlns="http://www.w3.org/2000/svg"><path fill="url(#a)" d="M17.594 11.47h-.01l-2.12-3.75c-.63-1.2-.6-2.6.08-3.77.69-1.22 2.02-1.95 3.42-1.95h.04c.55 0 1 .45 1 1s-.45 1-1 1h-.05c-.7 0-1.35.36-1.7.96-.32.56-.33 1.23-.04 1.81l2.1 3.71v.01z"/><path fill="url(#b)" d="M17.594 11.47h-.01l-2.12-3.75c-.63-1.2-.6-2.6.08-3.77.69-1.22 2.02-1.95 3.42-1.95h.04c.55 0 1 .45 1 1s-.45 1-1 1h-.05c-.7 0-1.35.36-1.7.96-.32.56-.33 1.23-.04 1.81l2.1 3.71v.01z"/><path fill="#A8C245" d="M16.004 13.34a4.17 4.17 0 1 0 0-8.34 4.17 4.17 0 0 0 0 8.34"/><path fill="url(#c)" d="M16.004 13.34a4.17 4.17 0 1 0 0-8.34 4.17 4.17 0 0 0 0 8.34"/><path fill="url(#d)" d="M8.494 30c-2.16 0-3.97-1.66-4.16-3.81l-1.32-15.12A3.75 3.75 0 0 1 6.754 7h2.78c1.73 0 3.12 1.4 3.12 3.12v15.7A4.16 4.16 0 0 1 8.494 30"/><path fill="url(#e)" d="M8.494 30c-2.16 0-3.97-1.66-4.16-3.81l-1.32-15.12A3.75 3.75 0 0 1 6.754 7h2.78c1.73 0 3.12 1.4 3.12 3.12v15.7A4.16 4.16 0 0 1 8.494 30"/><path fill="url(#f)" d="M8.494 30c-2.16 0-3.97-1.66-4.16-3.81l-1.32-15.12A3.75 3.75 0 0 1 6.754 7h2.78c1.73 0 3.12 1.4 3.12 3.12v15.7A4.16 4.16 0 0 1 8.494 30"/><path fill="url(#g)" d="M8.494 30c-2.16 0-3.97-1.66-4.16-3.81l-1.32-15.12A3.75 3.75 0 0 1 6.754 7h2.78c1.73 0 3.12 1.4 3.12 3.12v15.7A4.16 4.16 0 0 1 8.494 30"/><path fill="url(#h)" d="M23.514 30c2.16 0 3.97-1.66 4.16-3.81l1.31-15.11A3.74 3.74 0 0 0 25.254 7h-2.78c-1.73 0-3.12 1.4-3.12 3.12v15.7a4.16 4.16 0 0 0 4.16 4.18"/><path fill="url(#i)" d="M23.514 30c2.16 0 3.97-1.66 4.16-3.81l1.31-15.11A3.74 3.74 0 0 0 25.254 7h-2.78c-1.73 0-3.12 1.4-3.12 3.12v15.7a4.16 4.16 0 0 0 4.16 4.18"/><path fill="url(#j)" d="M23.514 30c2.16 0 3.97-1.66 4.16-3.81l1.31-15.11A3.74 3.74 0 0 0 25.254 7h-2.78c-1.73 0-3.12 1.4-3.12 3.12v15.7a4.16 4.16 0 0 0 4.16 4.18"/><path fill="url(#k)" d="M23.514 30c2.16 0 3.97-1.66 4.16-3.81l1.31-15.11A3.74 3.74 0 0 0 25.254 7h-2.78c-1.73 0-3.12 1.4-3.12 3.12v15.7a4.16 4.16 0 0 0 4.16 4.18"/><path fill="url(#l)" d="M23.514 30c2.16 0 3.97-1.66 4.16-3.81l1.31-15.11A3.74 3.74 0 0 0 25.254 7h-2.78c-1.73 0-3.12 1.4-3.12 3.12v15.7a4.16 4.16 0 0 0 4.16 4.18"/><path fill="url(#m)" d="M16.004 30c-3.31 0-6-2.69-6-6V10.75c0-2.07 1.68-3.75 3.75-3.75h4.5c2.07 0 3.75 1.68 3.75 3.75V24c0 3.31-2.69 6-6 6"/><g filter="url(#n)"><path fill="url(#o)" d="M23.938 18.346c0-7.682-1.778-9.85-3.038-10.283-.592 6.009-.889 16.646 0 17.687.89 1.04 2.173-1.603 3.038-1.437-.075-1.219 0-.216 0-5.967"/></g><g filter="url(#p)"><path fill="url(#q)" d="M8.875 10.125c.61-1.145 1.73-1.73 2.313-2l.937 19.938c-1.042-.396-3.1-.384-3.688-2.063-.437-1.25-.062-14.937.438-15.875"/></g><path fill="url(#r)" d="M16.004 30c-3.31 0-6-2.69-6-6V10.75c0-2.07 1.68-3.75 3.75-3.75h4.5c2.07 0 3.75 1.68 3.75 3.75V24c0 3.31-2.69 6-6 6"/><path fill="url(#s)" d="M16.004 30c-3.31 0-6-2.69-6-6V10.75c0-2.07 1.68-3.75 3.75-3.75h4.5c2.07 0 3.75 1.68 3.75 3.75V24c0 3.31-2.69 6-6 6"/><g filter="url(#t)"><path fill="url(#u)" d="M13.757 7.682c-.817.05-1.324.854-1.476 1.25 1.4 1.292 4.27 3.85 4.542 3.75s2.044-2.875 2.896-4.25l-.625-.75c-1.438-.02-4.519-.05-5.337 0"/></g><g filter="url(#v)"><path stroke="url(#w)" stroke-width="2" d="M18.484 8.868c.417.334 1.287 1.225 1.438 2.125.15.9.062 10.375 0 15"/></g><g filter="url(#x)"><path fill="#AFD962" d="M24.415 11.603c.659-1.68 2.27-4.093 2.907-3.594 2.533 1.981-.838 2.948-2.907 3.594"/></g><g filter="url(#y)"><path fill="#A3D061" d="M18.36 12.685c.144-1.905 1.03-4.13 1.738-3.737 2.81 1.564.276 2.962-1.738 3.737"/></g><defs><linearGradient id="d" x1="7.834" x2="7.834" y1="6.429" y2="34.017" gradientUnits="userSpaceOnUse"><stop stop-color="#4E9100"/><stop offset=".242" stop-color="#4B9103"/><stop offset=".437" stop-color="#438F0D"/><stop offset=".615" stop-color="#368D1E"/><stop offset=".783" stop-color="#238A36"/><stop offset=".943" stop-color="#0A8654"/><stop offset="1" stop-color="#008461"/></linearGradient><linearGradient id="e" x1="3.438" x2="10.938" y1="18" y2="18" gradientUnits="userSpaceOnUse"><stop stop-color="#55825F"/><stop offset=".517" stop-color="#3C7B4F"/><stop offset="1" stop-color="#507A57"/></linearGradient><linearGradient id="h" x1="24.174" x2="24.174" y1="4.453" y2="32.04" gradientUnits="userSpaceOnUse"><stop stop-color="#4E9100"/><stop offset=".231" stop-color="#4C9103"/><stop offset=".254" stop-color="#4B9104"/><stop offset=".396" stop-color="#479009"/><stop offset=".558" stop-color="#3C8E16"/><stop offset=".729" stop-color="#2A8B2D"/><stop offset=".906" stop-color="#10874D"/><stop offset="1" stop-color="#008461"/></linearGradient><linearGradient id="i" x1="17.07" x2="27.547" y1="18.5" y2="18.5" gradientUnits="userSpaceOnUse"><stop stop-color="#008461"/><stop offset="1" stop-color="#008461" stop-opacity="0"/></linearGradient><linearGradient id="j" x1="20.875" x2="29" y1="16.938" y2="16.938" gradientUnits="userSpaceOnUse"><stop stop-color="#769F37"/><stop offset=".569" stop-color="#7DB459"/><stop offset="1" stop-color="#7DB24E"/></linearGradient><linearGradient id="m" x1="16.004" x2="16.004" y1="5.426" y2="33.013" gradientUnits="userSpaceOnUse"><stop stop-color="#4E9100"/><stop offset=".242" stop-color="#4B9103"/><stop offset=".437" stop-color="#438F0D"/><stop offset=".615" stop-color="#368D1E"/><stop offset=".783" stop-color="#238A36"/><stop offset=".943" stop-color="#0A8654"/><stop offset="1" stop-color="#008461"/></linearGradient><linearGradient id="o" x1="21.419" x2="26.5" y1="20.886" y2="20.886" gradientUnits="userSpaceOnUse"><stop stop-color="#36812E"/><stop offset=".274" stop-color="#68A166"/><stop offset="1" stop-color="#71A868"/></linearGradient><linearGradient id="q" x1="10.185" x2="7.875" y1="16.5" y2="16.5" gradientUnits="userSpaceOnUse"><stop stop-color="#25533D"/><stop offset=".513" stop-color="#3E6956"/><stop offset="1" stop-color="#447159" stop-opacity="0"/></linearGradient><linearGradient id="r" x1="10.004" x2="22.004" y1="16.375" y2="16.375" gradientUnits="userSpaceOnUse"><stop stop-color="#538058"/><stop offset=".208" stop-color="#4A844D"/><stop offset=".609" stop-color="#70A366"/><stop offset="1" stop-color="#83B84C"/></linearGradient><linearGradient id="w" x1="19.244" x2="19.244" y1="8.868" y2="25.993" gradientUnits="userSpaceOnUse"><stop offset=".427" stop-color="#95C360"/><stop offset="1" stop-color="#8CBD5D" stop-opacity="0"/></linearGradient><radialGradient id="a" cx="0" cy="0" r="1" gradientTransform="matrix(-3.00002 -2.84373 3.62498 -3.8242 19 5.656)" gradientUnits="userSpaceOnUse"><stop offset=".36" stop-color="#B9BE4F"/><stop offset=".53" stop-color="#F5EF41"/><stop offset=".73" stop-color="#EDEE43"/><stop offset=".945" stop-color="#B6C24B"/></radialGradient><radialGradient id="b" cx="0" cy="0" r="1" gradientTransform="matrix(-1 .625 -.67575 -1.08122 19.5 2.844)" gradientUnits="userSpaceOnUse"><stop stop-color="#FFFF5E"/><stop offset="1" stop-color="#FFFF5C" stop-opacity="0"/></radialGradient><radialGradient id="c" cx="0" cy="0" r="1" gradientTransform="rotate(143.643 8.185 6.703)scale(5.58772)" gradientUnits="userSpaceOnUse"><stop stop-color="#F7FF4D"/><stop offset=".577" stop-color="#CEEC3A"/><stop offset="1" stop-color="#F5FF4B" stop-opacity="0"/></radialGradient><radialGradient id="f" cx="0" cy="0" r="1" gradientTransform="matrix(8.93748 19.56246 -17.03576 7.78312 -.313 11.125)" gradientUnits="userSpaceOnUse"><stop offset=".691" stop-color="#375E6F" stop-opacity="0"/><stop offset="1" stop-color="#365C6D"/></radialGradient><radialGradient id="g" cx="0" cy="0" r="1" gradientTransform="matrix(-3.31245 6.93752 -6.524 -3.115 9.688 7)" gradientUnits="userSpaceOnUse"><stop stop-color="#7CAA51"/><stop offset="1" stop-color="#73A645" stop-opacity="0"/></radialGradient><radialGradient id="k" cx="0" cy="0" r="1" gradientTransform="matrix(-8.6876 27.49997 -11.72474 -3.704 30 9.063)" gradientUnits="userSpaceOnUse"><stop offset=".553" stop-color="#3B5E72" stop-opacity="0"/><stop offset=".767" stop-color="#36616C"/></radialGradient><radialGradient id="l" cx="0" cy="0" r="1" gradientTransform="matrix(4.3125 8 -10.57885 5.70265 26.5 10.5)" gradientUnits="userSpaceOnUse"><stop stop-color="#ABD45C"/><stop offset="1" stop-color="#A7D05F" stop-opacity="0"/></radialGradient><radialGradient id="s" cx="0" cy="0" r="1" gradientTransform="matrix(0 23.9375 -25.4732 0 16.004 9.5)" gradientUnits="userSpaceOnUse"><stop offset=".638" stop-color="#3D6176" stop-opacity="0"/><stop offset=".881" stop-color="#415F7A"/></radialGradient><radialGradient id="u" cx="0" cy="0" r="1" gradientTransform="matrix(5.375 -2.625 3.14946 6.4489 13.813 11.625)" gradientUnits="userSpaceOnUse"><stop stop-color="#629840"/><stop offset=".387" stop-color="#679D43"/><stop offset="1" stop-color="#87B73D"/></radialGradient><filter id="n" width="7.598" height="21.931" x="18.339" y="6.063" color-interpolation-filters="sRGB" filterUnits="userSpaceOnUse"><feFlood flood-opacity="0" result="BackgroundImageFix"/><feBlend in="SourceGraphic" in2="BackgroundImageFix" result="shape"/><feGaussianBlur result="effect1_foregroundBlur_18_32975" stdDeviation="1"/></filter><filter id="p" width="5.881" height="21.938" x="7.244" y="7.125" color-interpolation-filters="sRGB" filterUnits="userSpaceOnUse"><feFlood flood-opacity="0" result="BackgroundImageFix"/><feBlend in="SourceGraphic" in2="BackgroundImageFix" result="shape"/><feGaussianBlur result="effect1_foregroundBlur_18_32975" stdDeviation=".5"/></filter><filter id="t" width="11.438" height="9.03" x="10.281" y="5.655" color-interpolation-filters="sRGB" filterUnits="userSpaceOnUse"><feFlood flood-opacity="0" result="BackgroundImageFix"/><feBlend in="SourceGraphic" in2="BackgroundImageFix" result="shape"/><feGaussianBlur result="effect1_foregroundBlur_18_32975" stdDeviation="1"/></filter><filter id="v" width="7.145" height="21.919" x="15.859" y="6.088" color-interpolation-filters="sRGB" filterUnits="userSpaceOnUse"><feFlood flood-opacity="0" result="BackgroundImageFix"/><feBlend in="SourceGraphic" in2="BackgroundImageFix" result="shape"/><feGaussianBlur result="effect1_foregroundBlur_18_32975" stdDeviation="1"/></filter><filter id="x" width="5.812" height="5.661" x="23.415" y="6.942" color-interpolation-filters="sRGB" filterUnits="userSpaceOnUse"><feFlood flood-opacity="0" result="BackgroundImageFix"/><feBlend in="SourceGraphic" in2="BackgroundImageFix" result="shape"/><feGaussianBlur result="effect1_foregroundBlur_18_32975" stdDeviation=".5"/></filter><filter id="y" width="5.985" height="6.783" x="16.86" y="7.402" color-interpolation-filters="sRGB" filterUnits="userSpaceOnUse"><feFlood flood-opacity="0" result="BackgroundImageFix"/><feBlend in="SourceGraphic" in2="BackgroundImageFix" result="shape"/><feGaussianBlur result="effect1_foregroundBlur_18_32975" stdDeviation=".75"/></filter></defs></svg>
